X: 1180
T: An Coileach Ag Fogairt An Lae
R: jig
M: 6/8
K: Gmajor
|:D|GAB BAG|d3 d2B|GAB BAG|A3 A2D|
GAB BAG|Bcd (3efge|dBG AFD|1 G3 G2:|2 G3 GB/c/d||
|:gdd gdd|c3 c2d|gdd gdd|A3 AB/c/d|
gdd gdd|c2e e(3fge|dBG AFD|1 G3 GBd:|2 G3 G2||

